public/favicon.svg

<svg width="64" height="64" viewBox="0 0 64 64" fill="none" xmlns="http://www.w3.org/2000/svg">
<g clip-path="url(#clip0_136_2)">
<rect width="64" height="64" fill="#0A0A0A"/>
<path d="M45.3732 24.7453C41.2339 17.6868 26.7463 18.4386 26.7463 27.4602C26.7463 36.4818 45.3732 44 45.3732 44C45.3732 44 64 36.4818 64 27.4602C64 18.4386 49.5125 17.6868 45.3732 24.7453Z" fill="#B90A16"/>
<path d="M10.8941 37.2201V43.6558H0V20H23.2408C32.6824 20 35.7328 22.5743 35.7328 27.3403V27.7577C35.7328 30.7843 34.1713 32.8716 31.012 33.7413C34.026 34.3674 34.8613 35.9677 35.1518 38.4724L35.7691 43.6558H24.2576L23.8582 39.8987C23.6766 38.1245 22.914 37.2201 20.3721 37.2201H10.8941ZM24.6571 28.8361V28.7318C24.6571 27.4446 23.604 26.9576 20.8804 26.9576H10.8941V30.6103H20.8804C23.604 30.6103 24.6571 30.1233 24.6571 28.8361Z" fill="#EAE5DF"/>
</g>
<defs>
<clipPath id="clip0_136_2">
<rect width="64" height="64" fill="white"/>
</clipPath>
</defs>
</svg>

<svg xmlns="http://www.w3.org/2000/svg" width="64" height="64" fill="none"><g clip-path="url(#a)"><rect width="64" height="64" fill="#0a0a0a" rx="32"/><path fill="#b90a16" d="M45.373 24.745c-4.14-7.058-18.627-6.306-18.627 2.715S45.373 44 45.373 44 64 36.482 64 27.46s-14.487-9.773-18.627-2.715"/><path fill="#eae5df" d="M10.894 37.22v6.436H0V20h23.24c9.442 0 12.493 2.574 12.493 7.34v.418c0 3.026-1.562 5.114-4.721 5.983 3.014.626 3.85 2.227 4.14 4.731l.617 5.184H24.258l-.4-3.757c-.181-1.775-.944-2.679-3.486-2.679zm13.763-8.384v-.104c0-1.287-1.053-1.774-3.777-1.774h-9.986v3.652h9.986c2.724 0 3.777-.487 3.777-1.774"/></g><defs><clipPath id="a"><rect width="64" height="64" fill="#fff" rx="32"/></clipPath></defs></svg>
